douban.svg

<svg fill="currentColor" viewBox="0 0 24 24"><path d="M20 6H4V4h16zm0 12v2H4v-2h3.33l-1.07-4H5V8h14v6h-1.26l-1.07 4zM7 12h10v-2H7zm2.4 6h5.2l1.07-4H8.33z"/></svg>

<svg  viewBox="0 0 24 24" fill="currentColor"><path  d="M20,6H4V4H20V6M20,18V20H4V18H7.33L6.26,14H5V8H19V14H17.74L16.67,18H20M7,12H17V10H7V12M9.4,18H14.6L15.67,14H8.33L9.4,18Z"/></svg>
